symbolic/16x16/panel/network-wired.svg

<svg xmlns="http://www.w3.org/2000/svg" width="16" height="16"><defs><style id="current-color-scheme" type="text/css"></style></defs><path style="fill:currentColor;color:#323a41" d="M2 2S1 2 1 3v9c0 1 1 1 1 1h2l1 1h6l1-1h2s1 .13 1-1V3c0-1-1-1-1-1zm1 2h10v7h-2l-1 1H6l-1-1H3z"/></svg>

<svg xmlns="http://www.w3.org/2000/svg" width="16" height="16" version="1.1">
 <defs>
  <style id="current-color-scheme" type="text/css">
   .ColorScheme-Text { color:#323a41; } .ColorScheme-Highlight { color:#4285f4; } .ColorScheme-NeutralText { color:#ff9800; } .ColorScheme-PositiveText { color:#4caf50; } .ColorScheme-NegativeText { color:#f44336; }
  </style>
 </defs>
 <path style="fill:currentColor" class="ColorScheme-Text" d="M 2,2 C 2,2 1,2 1,3 V 12 C 1,13 2,13 2,13 H 4 L 5,14 H 11 L 12,13 H 14 C 14,13 15,13.13 15,12 V 3 C 15,2 14,2 14,2 Z M 3,4 H 13 V 11 H 11 L 10,12 H 6 L 5,11 H 3 Z"/>
</svg>
